X: 6
T: Reel de P\'eribonka
I: Reel de Peribonka	R-114	G	reel
%%staffsep 48pt
M: C|
R: reel
K: G
D2|: "G"GABA GEED| "D7"FGAG FDD2| "G"GABc dBge| "D7"dBAc "G"BGEF|
     "G"GABA GEED| "D7"FGAG FDD2| "G"GABc dBge|1 "D7"dcAc "G"BGGD :|2      "D7"dcAc "G"BGG |]
|:B| "G"dBBA dBBe| dBBA B2Be| dBBA Bdge| "D7"dcAc "G"BGGB|
   "G"dBBA dBBe| dBBA B2GB| dBBA Bdge|1 "D7"dcAc "G"BGG :|2 "D7"dcAc "G"BGG2 |]
%%text Roaring Jelly  R-114

%%vskip 10pt

